X:153
T:Sportsman's Hornpipe, The
R:hornpipe
S:Albin Sundin
Z:id:hn-hornpipe-153
M:C|
L:1/8
K:Ador
AB | c2cA B2BA | GABc dBGB | cBcA BABG | E2A2 A2AB |
c2cA B2BA | GABc dBGB | gfge dBAG | E2A2 A2 :|
|: AG | ABcd efge | afdf edcB | ABcd efge | afdf e2 (3efg |
a2af g2ge | c2ce dBGB | cBcA BABG | E2A2 A2 :| 

